X:128
T: Midu Shange
N: C0209
O: China,Yunnan, Midu
S: II, 67]
N: Wenig Verzierungen, einige Fermaten. Vorspiel weggelassen.
N: Zwei Takte, auf Fuellwoerter gesprochen, beenden das Lied.
R: Shange. Biaoda aiqing]
M: 2/4
L: 1/16
K: A
f8 | fec6 |
f2cec2cB | A2BccBAF |
A2BcA2Bc | A2BAF4 |
c2faf2ce | A2c2cBAF |
A2BcA2Bc | A2BAF4 |
f8 | cec6 |
A2BcA2Bc | A2BAF4- | F8- | F8

@@@ Tune index: 6129
